Exported LUT.cube
#Created by: Affinity
TITLE "Exported LUT"
#LUT size
LUT_3D_SIZE 9
#data domain
DOMAIN_MIN 0.0 0.0 0.0
DOMAIN_MAX 1.0 1.0 1.0
#LUT data points
0.000000 0.000000 0.000000
0.255419 0.000000 0.000000
0.435388 0.000000 0.000000
0.493912 0.000000 0.000000
0.481933 0.000000 0.000000
0.470309 0.000000 0.000000
0.529899 0.000000 0.000000
0.719849 0.000000 0.000000
1.000000 0.000000 0.000000
0.000000 0.255419 0.000000
0.255419 0.255419 0.000000
0.435388 0.255419 0.000000
0.493912 0.255419 0.000000
0.481933 0.255419 0.000000
0.470309 0.255419 0.000000
0.529899 0.255419 0.000000
0.719849 0.255419 0.000000
1.000000 0.255419 0.000000
0.000000 0.435388 0.000000
0.255419 0.435388 0.000000
0.435388 0.435388 0.000000
0.493912 0.435388 0.000000
0.481933 0.435388 0.000000
0.470309 0.435388 0.000000
0.529899 0.435388 0.000000
0.719849 0.435388 0.000000
1.000000 0.435388 0.000000
0.000000 0.493912 0.000000
0.255419 0.493912 0.000000
0.435388 0.493912 0.000000
0.493912 0.493912 0.000000
0.481933 0.493912 0.000000
0.470309 0.493912 0.000000
0.529899 0.493912 0.000000
0.719849 0.493912 0.000000
1.000000 0.493912 0.000000
0.000000 0.481933 0.000000
0.255419 0.481933 0.000000
0.435388 0.481933 0.000000
0.493912 0.481933 0.000000
0.481933 0.481933 0.000000
0.470309 0.481933 0.000000
0.529899 0.481933 0.000000
0.719849 0.481933 0.000000
1.000000 0.481933 0.000000
0.000000 0.470309 0.000000
0.255419 0.470309 0.000000
0.435388 0.470309 0.000000
0.493912 0.470309 0.000000
0.481933 0.470309 0.000000
0.470309 0.470309 0.000000
0.529899 0.470309 0.000000
0.719849 0.470309 0.000000
1.000000 0.470309 0.000000
0.000000 0.529899 0.000000
0.255419 0.529899 0.000000
0.435388 0.529899 0.000000
0.493912 0.529899 0.000000
0.481933 0.529899 0.000000
0.470309 0.529899 0.000000
0.529899 0.529899 0.000000
0.719849 0.529899 0.000000
1.000000 0.529899 0.000000
0.000000 0.719849 0.000000
0.255419 0.719849 0.000000
0.435388 0.719849 0.000000
0.493912 0.719849 0.000000
0.481933 0.719849 0.000000
0.470309 0.719849 0.000000
0.529899 0.719849 0.000000
0.719849 0.719849 0.000000
1.000000 0.719849 0.000000
0.000000 1.000000 0.000000
0.255419 1.000000 0.000000
0.435388 1.000000 0.000000
0.493912 1.000000 0.000000
0.481933 1.000000 0.000000
0.470309 1.000000 0.000000
0.529899 1.000000 0.000000
0.719849 1.000000 0.000000
1.000000 1.000000 0.000000
0.000000 0.000000 0.255419
0.255419 0.000000 0.255419
0.435388 0.000000 0.255419
0.493912 0.000000 0.255419
0.481933 0.000000 0.255419
0.470309 0.000000 0.255419
0.529899 0.000000 0.255419
0.719849 0.000000 0.255419
1.000000 0.000000 0.255419
0.000000 0.255419 0.255419
0.255419 0.255419 0.255419
0.435388 0.255419 0.255419
0.493912 0.255419 0.255419
0.481933 0.255419 0.255419
0.470309 0.255419 0.255419
0.529899 0.255419 0.255419
0.719849 0.255419 0.255419
1.000000 0.255419 0.255419
0.000000 0.435388 0.255419
0.255419 0.435388 0.255419
0.435388 0.435388 0.255419
0.493912 0.435388 0.255419
0.481933 0.435388 0.255419
0.470309 0.435388 0.255419
0.529899 0.435388 0.255419
0.719849 0.435388 0.255419
1.000000 0.435388 0.255419
0.000000 0.493912 0.255419
0.255419 0.493912 0.255419
0.435388 0.493912 0.255419
0.493912 0.493912 0.255419
0.481933 0.493912 0.255419
0.470309 0.493912 0.255419
0.529899 0.493912 0.255419
0.719849 0.493912 0.255419
1.000000 0.493912 0.255419
0.000000 0.481933 0.255419
0.255419 0.481933 0.255419
0.435388 0.481933 0.255419
0.493912 0.481933 0.255419
0.481933 0.481933 0.255419
0.470309 0.481933 0.255419
0.529899 0.481933 0.255419
0.719849 0.481933 0.255419
1.000000 0.481933 0.255419
0.000000 0.470309 0.255419
0.255419 0.470309 0.255419
0.435388 0.470309 0.255419
0.493912 0.470309 0.255419
0.481933 0.470309 0.255419
0.470309 0.470309 0.255419
0.529899 0.470309 0.255419
0.719849 0.470309 0.255419
1.000000 0.470309 0.255419
0.000000 0.529899 0.255419
0.255419 0.529899 0.255419
0.435388 0.529899 0.255419
0.493912 0.529899 0.255419
0.481933 0.529899 0.255419
0.470309 0.529899 0.255419
0.529899 0.529899 0.255419
0.719849 0.529899 0.255419
1.000000 0.529899 0.255419
0.000000 0.719849 0.255419
0.255419 0.719849 0.255419
0.435388 0.719849 0.255419
0.493912 0.719849 0.255419
0.481933 0.719849 0.255419
0.470309 0.719849 0.255419
0.529899 0.719849 0.255419
0.719849 0.719849 0.255419
1.000000 0.719849 0.255419
0.000000 1.000000 0.255419
0.255419 1.000000 0.255419
0.435388 1.000000 0.255419
0.493912 1.000000 0.255419
0.481933 1.000000 0.255419
0.470309 1.000000 0.255419
0.529899 1.000000 0.255419
0.719849 1.000000 0.255419
1.000000 1.000000 0.255419
0.000000 0.000000 0.435388
0.255419 0.000000 0.435388
0.435388 0.000000 0.435388
0.493912 0.000000 0.435388
0.481933 0.000000 0.435388
0.470309 0.000000 0.435388
0.529899 0.000000 0.435388
0.719849 0.000000 0.435388
1.000000 0.000000 0.435388
0.000000 0.255419 0.435388
0.255419 0.255419 0.435388
0.435388 0.255419 0.435388
0.493912 0.255419 0.435388
0.481933 0.255419 0.435388
0.470309 0.255419 0.435388
0.529899 0.255419 0.435388
0.719849 0.255419 0.435388
1.000000 0.255419 0.435388
0.000000 0.435388 0.435388
0.255419 0.435388 0.435388
0.435388 0.435388 0.435388
0.493912 0.435388 0.435388
0.481933 0.435388 0.435388
0.470309 0.435388 0.435388
0.529899 0.435388 0.435388
0.719849 0.435388 0.435388
1.000000 0.435388 0.435388
0.000000 0.493912 0.435388
0.255419 0.493912 0.435388
0.435388 0.493912 0.435388
0.493912 0.493912 0.435388
0.481933 0.493912 0.435388
0.470309 0.493912 0.435388
0.529899 0.493912 0.435388
0.719849 0.493912 0.435388
1.000000 0.493912 0.435388
0.000000 0.481933 0.435388
0.255419 0.481933 0.435388
0.435388 0.481933 0.435388
0.493912 0.481933 0.435388
0.481933 0.481933 0.435388
0.470309 0.481933 0.435388
0.529899 0.481933 0.435388
0.719849 0.481933 0.435388
1.000000 0.481933 0.435388
0.000000 0.470309 0.435388
0.255419 0.470309 0.435388
0.435388 0.470309 0.435388
0.493912 0.470309 0.435388
0.481933 0.470309 0.435388
0.470309 0.470309 0.435388
0.529899 0.470309 0.435388
0.719849 0.470309 0.435388
1.000000 0.470309 0.435388
0.000000 0.529899 0.435388
0.255419 0.529899 0.435388
0.435388 0.529899 0.435388
0.493912 0.529899 0.435388
0.481933 0.529899 0.435388
0.470309 0.529899 0.435388
0.529899 0.529899 0.435388
0.719849 0.529899 0.435388
1.000000 0.529899 0.435388
0.000000 0.719849 0.435388
0.255419 0.719849 0.435388
0.435388 0.719849 0.435388
0.493912 0.719849 0.435388
0.481933 0.719849 0.435388
0.470309 0.719849 0.435388
0.529899 0.719849 0.435388
0.719849 0.719849 0.435388
1.000000 0.719849 0.435388
0.000000 1.000000 0.435388
0.255419 1.000000 0.435388
0.435388 1.000000 0.435388
0.493912 1.000000 0.435388
0.481933 1.000000 0.435388
0.470309 1.000000 0.435388
0.529899 1.000000 0.435388
0.719849 1.000000 0.435388
1.000000 1.000000 0.435388
0.000000 0.000000 0.493912
0.255419 0.000000 0.493912
0.435388 0.000000 0.493912
0.493912 0.000000 0.493912
0.481933 0.000000 0.493912
0.470309 0.000000 0.493912
0.529899 0.000000 0.493912
0.719849 0.000000 0.493912
1.000000 0.000000 0.493912
0.000000 0.255419 0.493912
0.255419 0.255419 0.493912
0.435388 0.255419 0.493912
0.493912 0.255419 0.493912
0.481933 0.255419 0.493912
0.470309 0.255419 0.493912
0.529899 0.255419 0.493912
0.719849 0.255419 0.493912
1.000000 0.255419 0.493912
0.000000 0.435388 0.493912
0.255419 0.435388 0.493912
0.435388 0.435388 0.493912
0.493912 0.435388 0.493912
0.481933 0.435388 0.493912
0.470309 0.435388 0.493912
0.529899 0.435388 0.493912
0.719849 0.435388 0.493912
1.000000 0.435388 0.493912
0.000000 0.493912 0.493912
0.255419 0.493912 0.493912
0.435388 0.493912 0.493912
0.493912 0.493912 0.493912
0.481933 0.493912 0.493912
0.470309 0.493912 0.493912
0.529899 0.493912 0.493912
0.719849 0.493912 0.493912
1.000000 0.493912 0.493912
0.000000 0.481933 0.493912
0.255419 0.481933 0.493912
0.435388 0.481933 0.493912
0.493912 0.481933 0.493912
0.481933 0.481933 0.493912
0.470309 0.481933 0.493912
0.529899 0.481933 0.493912
0.719849 0.481933 0.493912
1.000000 0.481933 0.493912
0.000000 0.470309 0.493912
0.255419 0.470309 0.493912
0.435388 0.470309 0.493912
0.493912 0.470309 0.493912
0.481933 0.470309 0.493912
0.470309 0.470309 0.493912
0.529899 0.470309 0.493912
0.719849 0.470309 0.493912
1.000000 0.470309 0.493912
0.000000 0.529899 0.493912
0.255419 0.529899 0.493912
0.435388 0.529899 0.493912
0.493912 0.529899 0.493912
0.481933 0.529899 0.493912
0.470309 0.529899 0.493912
0.529899 0.529899 0.493912
0.719849 0.529899 0.493912
1.000000 0.529899 0.493912
0.000000 0.719849 0.493912
0.255419 0.719849 0.493912
0.435388 0.719849 0.493912
0.493912 0.719849 0.493912
0.481933 0.719849 0.493912
0.470309 0.719849 0.493912
0.529899 0.719849 0.493912
0.719849 0.719849 0.493912
1.000000 0.719849 0.493912
0.000000 1.000000 0.493912
0.255419 1.000000 0.493912
0.435388 1.000000 0.493912
0.493912 1.000000 0.493912
0.481933 1.000000 0.493912
0.470309 1.000000 0.493912
0.529899 1.000000 0.493912
0.719849 1.000000 0.493912
1.000000 1.000000 0.493912
0.000000 0.000000 0.481933
0.255419 0.000000 0.481933
0.435388 0.000000 0.481933
0.493912 0.000000 0.481933
0.481933 0.000000 0.481933
0.470309 0.000000 0.481933
0.529899 0.000000 0.481933
0.719849 0.000000 0.481933
1.000000 0.000000 0.481933
0.000000 0.255419 0.481933
0.255419 0.255419 0.481933
0.435388 0.255419 0.481933
0.493912 0.255419 0.481933
0.481933 0.255419 0.481933
0.470309 0.255419 0.481933
0.529899 0.255419 0.481933
0.719849 0.255419 0.481933
1.000000 0.255419 0.481933
0.000000 0.435388 0.481933
0.255419 0.435388 0.481933
0.435388 0.435388 0.481933
0.493912 0.435388 0.481933
0.481933 0.435388 0.481933
0.470309 0.435388 0.481933
0.529899 0.435388 0.481933
0.719849 0.435388 0.481933
1.000000 0.435388 0.481933
0.000000 0.493912 0.481933
0.255419 0.493912 0.481933
0.435388 0.493912 0.481933
0.493912 0.493912 0.481933
0.481933 0.493912 0.481933
0.470309 0.493912 0.481933
0.529899 0.493912 0.481933
0.719849 0.493912 0.481933
1.000000 0.493912 0.481933
0.000000 0.481933 0.481933
0.255419 0.481933 0.481933
0.435388 0.481933 0.481933
0.493912 0.481933 0.481933
0.481933 0.481933 0.481933
0.470309 0.481933 0.481933
0.529899 0.481933 0.481933
0.719849 0.481933 0.481933
1.000000 0.481933 0.481933
0.000000 0.470309 0.481933
0.255419 0.470309 0.481933
0.435388 0.470309 0.481933
0.493912 0.470309 0.481933
0.481933 0.470309 0.481933
0.470309 0.470309 0.481933
0.529899 0.470309 0.481933
0.719849 0.470309 0.481933
1.000000 0.470309 0.481933
0.000000 0.529899 0.481933
0.255419 0.529899 0.481933
0.435388 0.529899 0.481933
0.493912 0.529899 0.481933
0.481933 0.529899 0.481933
0.470309 0.529899 0.481933
0.529899 0.529899 0.481933
0.719849 0.529899 0.481933
1.000000 0.529899 0.481933
0.000000 0.719849 0.481933
0.255419 0.719849 0.481933
0.435388 0.719849 0.481933
0.493912 0.719849 0.481933
0.481933 0.719849 0.481933
0.470309 0.719849 0.481933
0.529899 0.719849 0.481933
0.719849 0.719849 0.481933
1.000000 0.719849 0.481933
0.000000 1.000000 0.481933
0.255419 1.000000 0.481933
0.435388 1.000000 0.481933
0.493912 1.000000 0.481933
0.481933 1.000000 0.481933
0.470309 1.000000 0.481933
0.529899 1.000000 0.481933
0.719849 1.000000 0.481933
1.000000 1.000000 0.481933
0.000000 0.000000 0.470309
0.255419 0.000000 0.470309
0.435388 0.000000 0.470309
0.493912 0.000000 0.470309
0.481933 0.000000 0.470309
0.470309 0.000000 0.470309
0.529899 0.000000 0.470309
0.719849 0.000000 0.470309
1.000000 0.000000 0.470309
0.000000 0.255419 0.470309
0.255419 0.255419 0.470309
0.435388 0.255419 0.470309
0.493912 0.255419 0.470309
0.481933 0.255419 0.470309
0.470309 0.255419 0.470309
0.529899 0.255419 0.470309
0.719849 0.255419 0.470309
1.000000 0.255419 0.470309
0.000000 0.435388 0.470309
0.255419 0.435388 0.470309
0.435388 0.435388 0.470309
0.493912 0.435388 0.470309
0.481933 0.435388 0.470309
0.470309 0.435388 0.470309
0.529899 0.435388 0.470309
0.719849 0.435388 0.470309
1.000000 0.435388 0.470309
0.000000 0.493912 0.470309
0.255419 0.493912 0.470309
0.435388 0.493912 0.470309
0.493912 0.493912 0.470309
0.481933 0.493912 0.470309
0.470309 0.493912 0.470309
0.529899 0.493912 0.470309
0.719849 0.493912 0.470309
1.000000 0.493912 0.470309
0.000000 0.481933 0.470309
0.255419 0.481933 0.470309
0.435388 0.481933 0.470309
0.493912 0.481933 0.470309
0.481933 0.481933 0.470309
0.470309 0.481933 0.470309
0.529899 0.481933 0.470309
0.719849 0.481933 0.470309
1.000000 0.481933 0.470309
0.000000 0.470309 0.470309
0.255419 0.470309 0.470309
0.435388 0.470309 0.470309
0.493912 0.470309 0.470309
0.481933 0.470309 0.470309
0.470309 0.470309 0.470309
0.529899 0.470309 0.470309
0.719849 0.470309 0.470309
1.000000 0.470309 0.470309
0.000000 0.529899 0.470309
0.255419 0.529899 0.470309
0.435388 0.529899 0.470309
0.493912 0.529899 0.470309
0.481933 0.529899 0.470309
0.470309 0.529899 0.470309
0.529899 0.529899 0.470309
0.719849 0.529899 0.470309
1.000000 0.529899 0.470309
0.000000 0.719849 0.470309
0.255419 0.719849 0.470309
0.435388 0.719849 0.470309
0.493912 0.719849 0.470309
0.481933 0.719849 0.470309
0.470309 0.719849 0.470309
0.529899 0.719849 0.470309
0.719849 0.719849 0.470309
1.000000 0.719849 0.470309
0.000000 1.000000 0.470309
0.255419 1.000000 0.470309
0.435388 1.000000 0.470309
0.493912 1.000000 0.470309
0.481933 1.000000 0.470309
0.470309 1.000000 0.470309
0.529899 1.000000 0.470309
0.719849 1.000000 0.470309
1.000000 1.000000 0.470309
0.000000 0.000000 0.529899
0.255419 0.000000 0.529899
0.435388 0.000000 0.529899
0.493912 0.000000 0.529899
0.481933 0.000000 0.529899
0.470309 0.000000 0.529899
0.529899 0.000000 0.529899
0.719849 0.000000 0.529899
1.000000 0.000000 0.529899
0.000000 0.255419 0.529899
0.255419 0.255419 0.529899
0.435388 0.255419 0.529899
0.493912 0.255419 0.529899
0.481933 0.255419 0.529899
0.470309 0.255419 0.529899
0.529899 0.255419 0.529899
0.719849 0.255419 0.529899
1.000000 0.255419 0.529899
0.000000 0.435388 0.529899
0.255419 0.435388 0.529899
0.435388 0.435388 0.529899
0.493912 0.435388 0.529899
0.481933 0.435388 0.529899
0.470309 0.435388 0.529899
0.529899 0.435388 0.529899
0.719849 0.435388 0.529899
1.000000 0.435388 0.529899
0.000000 0.493912 0.529899
0.255419 0.493912 0.529899
0.435388 0.493912 0.529899
0.493912 0.493912 0.529899
0.481933 0.493912 0.529899
0.470309 0.493912 0.529899
0.529899 0.493912 0.529899
0.719849 0.493912 0.529899
1.000000 0.493912 0.529899
0.000000 0.481933 0.529899
0.255419 0.481933 0.529899
0.435388 0.481933 0.529899
0.493912 0.481933 0.529899
0.481933 0.481933 0.529899
0.470309 0.481933 0.529899
0.529899 0.481933 0.529899
0.719849 0.481933 0.529899
1.000000 0.481933 0.529899
0.000000 0.470309 0.529899
0.255419 0.470309 0.529899
0.435388 0.470309 0.529899
0.493912 0.470309 0.529899
0.481933 0.470309 0.529899
0.470309 0.470309 0.529899
0.529899 0.470309 0.529899
0.719849 0.470309 0.529899
1.000000 0.470309 0.529899
0.000000 0.529899 0.529899
0.255419 0.529899 0.529899
0.435388 0.529899 0.529899
0.493912 0.529899 0.529899
0.481933 0.529899 0.529899
0.470309 0.529899 0.529899
0.529899 0.529899 0.529899
0.719849 0.529899 0.529899
1.000000 0.529899 0.529899
0.000000 0.719849 0.529899
0.255419 0.719849 0.529899
0.435388 0.719849 0.529899
0.493912 0.719849 0.529899
0.481933 0.719849 0.529899
0.470309 0.719849 0.529899
0.529899 0.719849 0.529899
0.719849 0.719849 0.529899
1.000000 0.719849 0.529899
0.000000 1.000000 0.529899
0.255419 1.000000 0.529899
0.435388 1.000000 0.529899
0.493912 1.000000 0.529899
0.481933 1.000000 0.529899
0.470309 1.000000 0.529899
0.529899 1.000000 0.529899
0.719849 1.000000 0.529899
1.000000 1.000000 0.529899
0.000000 0.000000 0.719849
0.255419 0.000000 0.719849
0.435388 0.000000 0.719849
0.493912 0.000000 0.719849
0.481933 0.000000 0.719849
0.470309 0.000000 0.719849
0.529899 0.000000 0.719849
0.719849 0.000000 0.719849
1.000000 0.000000 0.719849
0.000000 0.255419 0.719849
0.255419 0.255419 0.719849
0.435388 0.255419 0.719849
0.493912 0.255419 0.719849
0.481933 0.255419 0.719849
0.470309 0.255419 0.719849
0.529899 0.255419 0.719849
0.719849 0.255419 0.719849
1.000000 0.255419 0.719849
0.000000 0.435388 0.719849
0.255419 0.435388 0.719849
0.435388 0.435388 0.719849
0.493912 0.435388 0.719849
0.481933 0.435388 0.719849
0.470309 0.435388 0.719849
0.529899 0.435388 0.719849
0.719849 0.435388 0.719849
1.000000 0.435388 0.719849
0.000000 0.493912 0.719849
0.255419 0.493912 0.719849
0.435388 0.493912 0.719849
0.493912 0.493912 0.719849
0.481933 0.493912 0.719849
0.470309 0.493912 0.719849
0.529899 0.493912 0.719849
0.719849 0.493912 0.719849
1.000000 0.493912 0.719849
0.000000 0.481933 0.719849
0.255419 0.481933 0.719849
0.435388 0.481933 0.719849
0.493912 0.481933 0.719849
0.481933 0.481933 0.719849
0.470309 0.481933 0.719849
0.529899 0.481933 0.719849
0.719849 0.481933 0.719849
1.000000 0.481933 0.719849
0.000000 0.470309 0.719849
0.255419 0.470309 0.719849
0.435388 0.470309 0.719849
0.493912 0.470309 0.719849
0.481933 0.470309 0.719849
0.470309 0.470309 0.719849
0.529899 0.470309 0.719849
0.719849 0.470309 0.719849
1.000000 0.470309 0.719849
0.000000 0.529899 0.719849
0.255419 0.529899 0.719849
0.435388 0.529899 0.719849
0.493912 0.529899 0.719849
0.481933 0.529899 0.719849
0.470309 0.529899 0.719849
0.529899 0.529899 0.719849
0.719849 0.529899 0.719849
1.000000 0.529899 0.719849
0.000000 0.719849 0.719849
0.255419 0.719849 0.719849
0.435388 0.719849 0.719849
0.493912 0.719849 0.719849
0.481933 0.719849 0.719849
0.470309 0.719849 0.719849
0.529899 0.719849 0.719849
0.719849 0.719849 0.719849
1.000000 0.719849 0.719849
0.000000 1.000000 0.719849
0.255419 1.000000 0.719849
0.435388 1.000000 0.719849
0.493912 1.000000 0.719849
0.481933 1.000000 0.719849
0.470309 1.000000 0.719849
0.529899 1.000000 0.719849
0.719849 1.000000 0.719849
1.000000 1.000000 0.719849
0.000000 0.000000 1.000000
0.255419 0.000000 1.000000
0.435388 0.000000 1.000000
0.493912 0.000000 1.000000
0.481933 0.000000 1.000000
0.470309 0.000000 1.000000
0.529899 0.000000 1.000000
0.719849 0.000000 1.000000
1.000000 0.000000 1.000000
0.000000 0.255419 1.000000
0.255419 0.255419 1.000000
0.435388 0.255419 1.000000
0.493912 0.255419 1.000000
0.481933 0.255419 1.000000
0.470309 0.255419 1.000000
0.529899 0.255419 1.000000
0.719849 0.255419 1.000000
1.000000 0.255419 1.000000
0.000000 0.435388 1.000000
0.255419 0.435388 1.000000
0.435388 0.435388 1.000000
0.493912 0.435388 1.000000
0.481933 0.435388 1.000000
0.470309 0.435388 1.000000
0.529899 0.435388 1.000000
0.719849 0.435388 1.000000
1.000000 0.435388 1.000000
0.000000 0.493912 1.000000
0.255419 0.493912 1.000000
0.435388 0.493912 1.000000
0.493912 0.493912 1.000000
0.481933 0.493912 1.000000
0.470309 0.493912 1.000000
0.529899 0.493912 1.000000
0.719849 0.493912 1.000000
1.000000 0.493912 1.000000
0.000000 0.481933 1.000000
0.255419 0.481933 1.000000
0.435388 0.481933 1.000000
0.493912 0.481933 1.000000
0.481933 0.481933 1.000000
0.470309 0.481933 1.000000
0.529899 0.481933 1.000000
0.719849 0.481933 1.000000
1.000000 0.481933 1.000000
0.000000 0.470309 1.000000
0.255419 0.470309 1.000000
0.435388 0.470309 1.000000
0.493912 0.470309 1.000000
0.481933 0.470309 1.000000
0.470309 0.470309 1.000000
0.529899 0.470309 1.000000
0.719849 0.470309 1.000000
1.000000 0.470309 1.000000
0.000000 0.529899 1.000000
0.255419 0.529899 1.000000
0.435388 0.529899 1.000000
0.493912 0.529899 1.000000
0.481933 0.529899 1.000000
0.470309 0.529899 1.000000
0.529899 0.529899 1.000000
0.719849 0.529899 1.000000
1.000000 0.529899 1.000000
0.000000 0.719849 1.000000
0.255419 0.719849 1.000000
0.435388 0.719849 1.000000
0.493912 0.719849 1.000000
0.481933 0.719849 1.000000
0.470309 0.719849 1.000000
0.529899 0.719849 1.000000
0.719849 0.719849 1.000000
1.000000 0.719849 1.000000
0.000000 1.000000 1.000000
0.255419 1.000000 1.000000
0.435388 1.000000 1.000000
0.493912 1.000000 1.000000
0.481933 1.000000 1.000000
0.470309 1.000000 1.000000
0.529899 1.000000 1.000000
0.719849 1.000000 1.000000
1.000000 1.000000 1.000000
