Exported LUT.cube
#Created by: Affinity
TITLE "Exported LUT"
#LUT size
LUT_3D_SIZE 33
#data domain
DOMAIN_MIN 0.0 0.0 0.0
DOMAIN_MAX 1.0 1.0 1.0
#LUT data points
0.000000 0.000000 0.000000
0.066802 0.000000 0.000000
0.132425 0.000000 0.000000
0.195690 0.000000 0.000000
0.255419 0.000000 0.000000
0.310431 0.000000 0.000000
0.359548 0.000000 0.000000
0.401591 0.000000 0.000000
0.435388 0.000000 0.000000
0.460504 0.000000 0.000000
0.477892 0.000000 0.000000
0.488659 0.000000 0.000000
0.493912 0.000000 0.000000
0.494759 0.000000 0.000000
0.492307 0.000000 0.000000
0.487662 0.000000 0.000000
0.481933 0.000000 0.000000
0.476226 0.000000 0.000000
0.471648 0.000000 0.000000
0.469307 0.000000 0.000000
0.470309 0.000000 0.000000
0.475762 0.000000 0.000000
0.486774 0.000000 0.000000
0.504450 0.000000 0.000000
0.529899 0.000000 0.000000
0.564227 0.000000 0.000000
0.608081 0.000000 0.000000
0.660427 0.000000 0.000000
0.719849 0.000000 0.000000
0.784933 0.000000 0.000000
0.854263 0.000000 0.000000
0.926424 0.000000 0.000000
1.000000 0.000000 0.000000
0.000000 0.066802 0.000000
0.066802 0.066802 0.000000
0.132425 0.066802 0.000000
0.195690 0.066802 0.000000
0.255419 0.066802 0.000000
0.310431 0.066802 0.000000
0.359548 0.066802 0.000000
0.401591 0.066802 0.000000
0.435388 0.066802 0.000000
0.460504 0.066802 0.000000
0.477892 0.066802 0.000000
0.488659 0.066802 0.000000
0.493912 0.066802 0.000000
0.494759 0.066802 0.000000
0.492307 0.066802 0.000000
0.487662 0.066802 0.000000
0.481933 0.066802 0.000000
0.476226 0.066802 0.000000
0.471648 0.066802 0.000000
0.469307 0.066802 0.000000
0.470309 0.066802 0.000000
0.475762 0.066802 0.000000
0.486774 0.066802 0.000000
0.504450 0.066802 0.000000
0.529899 0.066802 0.000000
0.564227 0.066802 0.000000
0.608081 0.066802 0.000000
0.660427 0.066802 0.000000
0.719849 0.066802 0.000000
0.784933 0.066802 0.000000
0.854263 0.066802 0.000000
0.926424 0.066802 0.000000
1.000000 0.066802 0.000000
0.000000 0.132425 0.000000
0.066802 0.132425 0.000000
0.132425 0.132425 0.000000
0.195690 0.132425 0.000000
0.255419 0.132425 0.000000
0.310431 0.132425 0.000000
0.359548 0.132425 0.000000
0.401591 0.132425 0.000000
0.435388 0.132425 0.000000
0.460504 0.132425 0.000000
0.477892 0.132425 0.000000
0.488659 0.132425 0.000000
0.493912 0.132425 0.000000
0.494759 0.132425 0.000000
0.492307 0.132425 0.000000
0.487662 0.132425 0.000000
0.481933 0.132425 0.000000
0.476226 0.132425 0.000000
0.471648 0.132425 0.000000
0.469307 0.132425 0.000000
0.470309 0.132425 0.000000
0.475762 0.132425 0.000000
0.486774 0.132425 0.000000
0.504450 0.132425 0.000000
0.529899 0.132425 0.000000
0.564227 0.132425 0.000000
0.608081 0.132425 0.000000
0.660427 0.132425 0.000000
0.719849 0.132425 0.000000
0.784933 0.132425 0.000000
0.854263 0.132425 0.000000
0.926424 0.132425 0.000000
1.000000 0.132425 0.000000
0.000000 0.195690 0.000000
0.066802 0.195690 0.000000
0.132425 0.195690 0.000000
0.195690 0.195690 0.000000
0.255419 0.195690 0.000000
0.310431 0.195690 0.000000
0.359548 0.195690 0.000000
0.401591 0.195690 0.000000
0.435388 0.195690 0.000000
0.460504 0.195690 0.000000
0.477892 0.195690 0.000000
0.488659 0.195690 0.000000
0.493912 0.195690 0.000000
0.494759 0.195690 0.000000
0.492307 0.195690 0.000000
0.487662 0.195690 0.000000
0.481933 0.195690 0.000000
0.476226 0.195690 0.000000
0.471648 0.195690 0.000000
0.469307 0.195690 0.000000
0.470309 0.195690 0.000000
0.475762 0.195690 0.000000
0.486774 0.195690 0.000000
0.504450 0.195690 0.000000
0.529899 0.195690 0.000000
0.564227 0.195690 0.000000
0.608081 0.195690 0.000000
0.660427 0.195690 0.000000
0.719849 0.195690 0.000000
0.784933 0.195690 0.000000
0.854263 0.195690 0.000000
0.926424 0.195690 0.000000
1.000000 0.195690 0.000000
0.000000 0.255419 0.000000
0.066802 0.255419 0.000000
0.132425 0.255419 0.000000
0.195690 0.255419 0.000000
0.255419 0.255419 0.000000
0.310431 0.255419 0.000000
0.359548 0.255419 0.000000
0.401591 0.255419 0.000000
0.435388 0.255419 0.000000
0.460504 0.255419 0.000000
0.477892 0.255419 0.000000
0.488659 0.255419 0.000000
0.493912 0.255419 0.000000
0.494759 0.255419 0.000000
0.492307 0.255419 0.000000
0.487662 0.255419 0.000000
0.481933 0.255419 0.000000
0.476226 0.255419 0.000000
0.471648 0.255419 0.000000
0.469307 0.255419 0.000000
0.470309 0.255419 0.000000
0.475762 0.255419 0.000000
0.486774 0.255419 0.000000
0.504450 0.255419 0.000000
0.529899 0.255419 0.000000
0.564227 0.255419 0.000000
0.608081 0.255419 0.000000
0.660427 0.255419 0.000000
0.719849 0.255419 0.000000
0.784933 0.255419 0.000000
0.854263 0.255419 0.000000
0.926424 0.255419 0.000000
1.000000 0.255419 0.000000
0.000000 0.310431 0.000000
0.066802 0.310431 0.000000
0.132425 0.310431 0.000000
0.195690 0.310431 0.000000
0.255419 0.310431 0.000000
0.310431 0.310431 0.000000
0.359548 0.310431 0.000000
0.401591 0.310431 0.000000
0.435388 0.310431 0.000000
0.460504 0.310431 0.000000
0.477892 0.310431 0.000000
0.488659 0.310431 0.000000
0.493912 0.310431 0.000000
0.494759 0.310431 0.000000
0.492307 0.310431 0.000000
0.487662 0.310431 0.000000
0.481933 0.310431 0.000000
0.476226 0.310431 0.000000
0.471648 0.310431 0.000000
0.469307 0.310431 0.000000
0.470309 0.310431 0.000000
0.475762 0.310431 0.000000
0.486774 0.310431 0.000000
0.504450 0.310431 0.000000
0.529899 0.310431 0.000000
0.564227 0.310431 0.000000
0.608081 0.310431 0.000000
0.660427 0.310431 0.000000
0.719849 0.310431 0.000000
0.784933 0.310431 0.000000
0.854263 0.310431 0.000000
0.926424 0.310431 0.000000
1.000000 0.310431 0.000000
0.000000 0.359548 0.000000
0.066802 0.359548 0.000000
0.132425 0.359548 0.000000
0.195690 0.359548 0.000000
0.255419 0.359548 0.000000
0.310431 0.359548 0.000000
0.359548 0.359548 0.000000
0.401591 0.359548 0.000000
0.435388 0.359548 0.000000
0.460504 0.359548 0.000000
0.477892 0.359548 0.000000
0.488659 0.359548 0.000000
0.493912 0.359548 0.000000
0.494759 0.359548 0.000000
0.492307 0.359548 0.000000
0.487662 0.359548 0.000000
0.481933 0.359548 0.000000
0.476226 0.359548 0.000000
0.471648 0.359548 0.000000
0.469307 0.359548 0.000000
0.470309 0.359548 0.000000
0.475762 0.359548 0.000000
0.486774 0.359548 0.000000
0.504450 0.359548 0.000000
0.529899 0.359548 0.000000
0.564227 0.359548 0.000000
0.608081 0.359548 0.000000
0.660427 0.359548 0.000000
0.719849 0.359548 0.000000
0.784933 0.359548 0.000000
0.854263 0.359548 0.000000
0.926424 0.359548 0.000000
1.000000 0.359548 0.000000
0.000000 0.401591 0.000000
0.066802 0.401591 0.000000
0.132425 0.401591 0.000000
0.195690 0.401591 0.000000
0.255419 0.401591 0.000000
0.310431 0.401591 0.000000
0.359548 0.401591 0.000000
0.401591 0.401591 0.000000
0.435388 0.401591 0.000000
0.460504 0.401591 0.000000
0.477892 0.401591 0.000000
0.488659 0.401591 0.000000
0.493912 0.401591 0.000000
0.494759 0.401591 0.000000
0.492307 0.401591 0.000000
0.487662 0.401591 0.000000
0.481933 0.401591 0.000000
0.476226 0.401591 0.000000
0.471648 0.401591 0.000000
0.469307 0.401591 0.000000
0.470309 0.401591 0.000000
0.475762 0.401591 0.000000
0.486774 0.401591 0.000000
0.504450 0.401591 0.000000
0.529899 0.401591 0.000000
0.564227 0.401591 0.000000
0.608081 0.401591 0.000000
0.660427 0.401591 0.000000
0.719849 0.401591 0.000000
0.784933 0.401591 0.000000
0.854263 0.401591 0.000000
0.926424 0.401591 0.000000
1.000000 0.401591 0.000000
0.000000 0.435388 0.000000
0.066802 0.435388 0.000000
0.132425 0.435388 0.000000
0.195690 0.435388 0.000000
0.255419 0.435388 0.000000
0.310431 0.435388 0.000000
0.359548 0.435388 0.000000
0.401591 0.435388 0.000000
0.435388 0.435388 0.000000
0.460504 0.435388 0.000000
0.477892 0.435388 0.000000
0.488659 0.435388 0.000000
0.493912 0.435388 0.000000
0.494759 0.435388 0.000000
0.492307 0.435388 0.000000
0.487662 0.435388 0.000000
0.481933 0.435388 0.000000
0.476226 0.435388 0.000000
0.471648 0.435388 0.000000
0.469307 0.435388 0.000000
0.470309 0.435388 0.000000
0.475762 0.435388 0.000000
0.486774 0.435388 0.000000
0.504450 0.435388 0.000000
0.529899 0.435388 0.000000
0.564227 0.435388 0.000000
0.608081 0.435388 0.000000
0.660427 0.435388 0.000000
0.719849 0.435388 0.000000
0.784933 0.435388 0.000000
0.854263 0.435388 0.000000
0.926424 0.435388 0.000000
1.000000 0.435388 0.000000
0.000000 0.460504 0.000000
0.066802 0.460504 0.000000
0.132425 0.460504 0.000000
0.195690 0.460504 0.000000
0.255419 0.460504 0.000000
0.310431 0.460504 0.000000
0.359548 0.460504 0.000000
0.401591 0.460504 0.000000
0.435388 0.460504 0.000000
0.460504 0.460504 0.000000
0.477892 0.460504 0.000000
0.488659 0.460504 0.000000
0.493912 0.460504 0.000000
0.494759 0.460504 0.000000
0.492307 0.460504 0.000000
0.487662 0.460504 0.000000
0.481933 0.460504 0.000000
0.476226 0.460504 0.000000
0.471648 0.460504 0.000000
0.469307 0.460504 0.000000
0.470309 0.460504 0.000000
0.475762 0.460504 0.000000
0.486774 0.460504 0.000000
0.504450 0.460504 0.000000
0.529899 0.460504 0.000000
0.564227 0.460504 0.000000
0.608081 0.460504 0.000000
0.660427 0.460504 0.000000
0.719849 0.460504 0.000000
0.784933 0.460504 0.000000
0.854263 0.460504 0.000000
0.926424 0.460504 0.000000
1.000000 0.460504 0.000000
0.000000 0.477892 0.000000
0.066802 0.477892 0.000000
0.132425 0.477892 0.000000
0.195690 0.477892 0.000000
0.255419 0.477892 0.000000
0.310431 0.477892 0.000000
0.359548 0.477892 0.000000
0.401591 0.477892 0.000000
0.435388 0.477892 0.000000
0.460504 0.477892 0.000000
0.477892 0.477892 0.000000
0.488659 0.477892 0.000000
0.493912 0.477892 0.000000
0.494759 0.477892 0.000000
0.492307 0.477892 0.000000
0.487662 0.477892 0.000000
0.481933 0.477892 0.000000
0.476226 0.477892 0.000000
0.471648 0.477892 0.000000
0.469307 0.477892 0.000000
0.470309 0.477892 0.000000
0.475762 0.477892 0.000000
0.486774 0.477892 0.000000
0.504450 0.477892 0.000000
0.529899 0.477892 0.000000
0.564227 0.477892 0.000000
0.608081 0.477892 0.000000
0.660427 0.477892 0.000000
0.719849 0.477892 0.000000
0.784933 0.477892 0.000000
0.854263 0.477892 0.000000
0.926424 0.477892 0.000000
1.000000 0.477892 0.000000
0.000000 0.488659 0.000000
0.066802 0.488659 0.000000
0.132425 0.488659 0.000000
0.195690 0.488659 0.000000
0.255419 0.488659 0.000000
0.310431 0.488659 0.000000
0.359548 0.488659 0.000000
0.401591 0.488659 0.000000
0.435388 0.488659 0.000000
0.460504 0.488659 0.000000
0.477892 0.488659 0.000000
0.488659 0.488659 0.000000
0.493912 0.488659 0.000000
0.494759 0.488659 0.000000
0.492307 0.488659 0.000000
0.487662 0.488659 0.000000
0.481933 0.488659 0.000000
0.476226 0.488659 0.000000
0.471648 0.488659 0.000000
0.469307 0.488659 0.000000
0.470309 0.488659 0.000000
0.475762 0.488659 0.000000
0.486774 0.488659 0.000000
0.504450 0.488659 0.000000
0.529899 0.488659 0.000000
0.564227 0.488659 0.000000
0.608081 0.488659 0.000000
0.660427 0.488659 0.000000
0.719849 0.488659 0.000000
0.784933 0.488659 0.000000
0.854263 0.488659 0.000000
0.926424 0.488659 0.000000
1.000000 0.488659 0.000000
0.000000 0.493912 0.000000
0.066802 0.493912 0.000000
0.132425 0.493912 0.000000
0.195690 0.493912 0.000000
0.255419 0.493912 0.000000
0.310431 0.493912 0.000000
0.359548 0.493912 0.000000
0.401591 0.493912 0.000000
0.435388 0.493912 0.000000
0.460504 0.493912 0.000000
0.477892 0.493912 0.000000
0.488659 0.493912 0.000000
0.493912 0.493912 0.000000
0.494759 0.493912 0.000000
0.492307 0.493912 0.000000
0.487662 0.493912 0.000000
0.481933 0.493912 0.000000
0.476226 0.493912 0.000000
0.471648 0.493912 0.000000
0.469307 0.493912 0.000000
0.470309 0.493912 0.000000
0.475762 0.493912 0.000000
0.486774 0.493912 0.000000
0.504450 0.493912 0.000000
0.529899 0.493912 0.000000
0.564227 0.493912 0.000000
0.608081 0.493912 0.000000
0.660427 0.493912 0.000000
0.719849 0.493912 0.000000
0.784933 0.493912 0.000000
0.854263 0.493912 0.000000
0.926424 0.493912 0.000000
1.000000 0.493912 0.000000
0.000000 0.494759 0.000000
0.066802 0.494759 0.000000
0.132425 0.494759 0.000000
0.195690 0.494759 0.000000
0.255419 0.494759 0.000000
0.310431 0.494759 0.000000
0.359548 0.494759 0.000000
0.401591 0.494759 0.000000
0.435388 0.494759 0.000000
0.460504 0.494759 0.000000
0.477892 0.494759 0.000000
0.488659 0.494759 0.000000
0.493912 0.494759 0.000000
0.494759 0.494759 0.000000
0.492307 0.494759 0.000000
0.487662 0.494759 0.000000
0.481933 0.494759 0.000000
0.476226 0.494759 0.000000
0.471648 0.494759 0.000000
0.469307 0.494759 0.000000
0.470309 0.494759 0.000000
0.475762 0.494759 0.000000
0.486774 0.494759 0.000000
0.504450 0.494759 0.000000
0.529899 0.494759 0.000000
0.564227 0.494759 0.000000
0.608081 0.494759 0.000000
0.660427 0.494759 0.000000
0.719849 0.494759 0.000000
0.784933 0.494759 0.000000
0.854263 0.494759 0.000000
0.926424 0.494759 0.000000
1.000000 0.494759 0.000000
0.000000 0.492307 0.000000
0.066802 0.492307 0.000000
0.132425 0.492307 0.000000
0.195690 0.492307 0.000000
0.255419 0.492307 0.000000
0.310431 0.492307 0.000000
0.359548 0.492307 0.000000
0.401591 0.492307 0.000000
0.435388 0.492307 0.000000
0.460504 0.492307 0.000000
0.477892 0.492307 0.000000
0.488659 0.492307 0.000000
0.493912 0.492307 0.000000
0.494759 0.492307 0.000000
0.492307 0.492307 0.000000
0.487662 0.492307 0.000000
0.481933 0.492307 0.000000
0.476226 0.492307 0.000000
0.471648 0.492307 0.000000
0.469307 0.492307 0.000000
0.470309 0.492307 0.000000
0.475762 0.492307 0.000000
0.486774 0.492307 0.000000
0.504450 0.492307 0.000000
0.529899 0.492307 0.000000
0.564227 0.492307 0.000000
0.608081 0.492307 0.000000
0.660427 0.492307 0.000000
0.719849 0.492307 0.000000
0.784933 0.492307 0.000000
0.854263 0.492307 0.000000
0.926424 0.492307 0.000000
1.000000 0.492307 0.000000
0.000000 0.487662 0.000000
0.066802 0.487662 0.000000
0.132425 0.487662 0.000000
0.195690 0.487662 0.000000
0.255419 0.487662 0.000000
0.310431 0.487662 0.000000
0.359548 0.487662 0.000000
0.401591 0.487662 0.000000
0.435388 0.487662 0.000000
0.460504 0.487662 0.000000
0.477892 0.487662 0.000000
0.488659 0.487662 0.000000
0.493912 0.487662 0.000000
0.494759 0.487662 0.000000
0.492307 0.487662 0.000000
0.487662 0.487662 0.000000
0.481933 0.487662 0.000000
0.476226 0.487662 0.000000
0.471648 0.487662 0.000000
0.469307 0.487662 0.000000
0.470309 0.487662 0.000000
0.475762 0.487662 0.000000
0.486774 0.487662 0.000000
0.504450 0.487662 0.000000
0.529899 0.487662 0.000000
0.564227 0.487662 0.000000
0.608081 0.487662 0.000000
0.660427 0.487662 0.000000
0.719849 0.487662 0.000000
0.784933 0.487662 0.000000
0.854263 0.487662 0.000000
0.926424 0.487662 0.000000
1.000000 0.487662 0.000000
0.000000 0.481933 0.000000
0.066802 0.481933 0.000000
0.132425 0.481933 0.000000
0.195690 0.481933 0.000000
0.255419 0.481933 0.000000
0.310431 0.481933 0.000000
0.359548 0.481933 0.000000
0.401591 0.481933 0.000000
0.435388 0.481933 0.000000
0.460504 0.481933 0.000000
0.477892 0.481933 0.000000
0.488659 0.481933 0.000000
0.493912 0.481933 0.000000
0.494759 0.481933 0.000000
0.492307 0.481933 0.000000
0.487662 0.481933 0.000000
0.481933 0.481933 0.000000
0.476226 0.481933 0.000000
0.471648 0.481933 0.000000
0.469307 0.481933 0.000000
0.470309 0.481933 0.000000
0.475762 0.481933 0.000000
0.486774 0.481933 0.000000
0.504450 0.481933 0.000000
0.529899 0.481933 0.000000
0.564227 0.481933 0.000000
0.608081 0.481933 0.000000
0.660427 0.481933 0.000000
0.719849 0.481933 0.000000
0.784933 0.481933 0.000000
0.854263 0.481933 0.000000
0.926424 0.481933 0.000000
1.000000 0.481933 0.000000
0.000000 0.476226 0.000000
0.066802 0.476226 0.000000
0.132425 0.476226 0.000000
0.195690 0.476226 0.000000
0.255419 0.476226 0.000000
0.310431 0.476226 0.000000
0.359548 0.476226 0.000000
0.401591 0.476226 0.000000
0.435388 0.476226 0.000000
0.460504 0.476226 0.000000
0.477892 0.476226 0.000000
0.488659 0.476226 0.000000
0.493912 0.476226 0.000000
0.494759 0.476226 0.000000
0.492307 0.476226 0.000000
0.487662 0.476226 0.000000
0.481933 0.476226 0.000000
0.476226 0.476226 0.000000
0.471648 0.476226 0.000000
0.469307 0.476226 0.000000
0.470309 0.476226 0.000000
0.475762 0.476226 0.000000
0.486774 0.476226 0.000000
0.504450 0.476226 0.000000
0.529899 0.476226 0.000000
0.564227 0.476226 0.000000
0.608081 0.476226 0.000000
0.660427 0.476226 0.000000
0.719849 0.476226 0.000000
0.784933 0.476226 0.000000
0.854263 0.476226 0.000000
0.926424 0.476226 0.000000
1.000000 0.476226 0.000000
0.000000 0.471648 0.000000
0.066802 0.471648 0.000000
0.132425 0.471648 0.000000
0.195690 0.471648 0.000000
0.255419 0.471648 0.000000
0.310431 0.471648 0.000000
0.359548 0.471648 0.000000
0.401591 0.471648 0.000000
0.435388 0.471648 0.000000
0.460504 0.471648 0.000000
0.477892 0.471648 0.000000
0.488659 0.471648 0.000000
0.493912 0.471648 0.000000
0.494759 0.471648 0.000000
0.492307 0.471648 0.000000
0.487662 0.471648 0.000000
0.481933 0.471648 0.000000
0.476226 0.471648 0.000000
0.471648 0.471648 0.000000
0.469307 0.471648 0.000000
0.470309 0.471648 0.000000
0.475762 0.471648 0.000000
0.486774 0.471648 0.000000
0.504450 0.471648 0.000000
0.529899 0.471648 0.000000
0.564227 0.471648 0.000000
0.608081 0.471648 0.000000
0.660427 0.471648 0.000000
0.719849 0.471648 0.000000
0.784933 0.471648 0.000000
0.854263 0.471648 0.000000
0.926424 0.471648 0.000000
1.000000 0.471648 0.000000
0.000000 0.469307 0.000000
0.066802 0.469307 0.000000
0.132425 0.469307 0.000000
0.195690 0.469307 0.000000
0.255419 0.469307 0.000000
0.310431 0.469307 0.000000
0.359548 0.469307 0.000000
0.401591 0.469307 0.000000
0.435388 0.469307 0.000000
0.460504 0.469307 0.000000
0.477892 0.469307 0.000000
0.488659 0.469307 0.000000
0.493912 0.469307 0.000000
0.494759 0.469307 0.000000
0.492307 0.469307 0.000000
0.487662 0.469307 0.000000
0.481933 0.469307 0.000000
0.476226 0.469307 0.000000
0.471648 0.469307 0.000000
0.469307 0.469307 0.000000
0.470309 0.469307 0.000000
0.475762 0.469307 0.000000
0.486774 0.469307 0.000000
0.504450 0.469307 0.000000
0.529899 0.469307 0.000000
0.564227 0.469307 0.000000
0.608081 0.469307 0.000000
0.660427 0.469307 0.000000
0.719849 0.469307 0.000000
0.784933 0.469307 0.000000
0.854263 0.469307 0.000000
0.926424 0.469307 0.000000
1.000000 0.469307 0.000000
0.000000 0.470309 0.000000
0.066802 0.470309 0.000000
0.132425 0.470309 0.000000
0.195690 0.470309 0.000000
0.255419 0.470309 0.000000
0.310431 0.470309 0.000000
0.359548 0.470309 0.000000
0.401591 0.470309 0.000000
0.435388 0.470309 0.000000
0.460504 0.470309 0.000000
0.477892 0.470309 0.000000
0.488659 0.470309 0.000000
0.493912 0.470309 0.000000
0.494759 0.470309 0.000000
0.492307 0.470309 0.000000
0.487662 0.470309 0.000000
0.481933 0.470309 0.000000
0.476226 0.470309 0.000000
0.471648 0.470309 0.000000
0.469307 0.470309 0.000000
0.470309 0.470309 0.000000
0.475762 0.470309 0.000000
0.486774 0.470309 0.000000
0.504450 0.470309 0.000000
0.529899 0.470309 0.000000
0.564227 0.470309 0.000000
0.608081 0.470309 0.000000
0.660427 0.470309 0.000000
0.719849 0.470309 0.000000
0.784933 0.470309 0.000000
0.854263 0.470309 0.000000
0.926424 0.470309 0.000000
1.000000 0.470309 0.000000
0.000000 0.475762 0.000000
0.066802 0.475762 0.000000
0.132425 0.475762 0.000000
0.195690 0.475762 0.000000
0.255419 0.475762 0.000000
0.310431 0.475762 0.000000
0.359548 0.475762 0.000000
0.401591 0.475762 0.000000
0.435388 0.475762 0.000000
0.460504 0.475762 0.000000
0.477892 0.475762 0.000000
0.488659 0.475762 0.000000
0.493912 0.475762 0.000000
0.494759 0.475762 0.000000
0.492307 0.475762 0.000000
0.487662 0.475762 0.000000
0.481933 0.475762 0.000000
0.476226 0.475762 0.000000
0.471648 0.475762 0.000000
0.469307 0.475762 0.000000
0.470309 0.475762 0.000000
0.475762 0.475762 0.000000
0.486774 0.475762 0.000000
0.504450 0.475762 0.000000
0.529899 0.475762 0.000000
0.564227 0.475762 0.000000
0.608081 0.475762 0.000000
0.660427 0.475762 0.000000
0.719849 0.475762 0.000000
0.784933 0.475762 0.000000
0.854263 0.475762 0.000000
0.926424 0.475762 0.000000
1.000000 0.475762 0.000000
0.000000 0.486774 0.000000
0.066802 0.486774 0.000000
0.132425 0.486774 0.000000
0.195690 0.486774 0.000000
0.255419 0.486774 0.000000
0.310431 0.486774 0.000000
0.359548 0.486774 0.000000
0.401591 0.486774 0.000000
0.435388 0.486774 0.000000
0.460504 0.486774 0.000000
0.477892 0.486774 0.000000
0.488659 0.486774 0.000000
0.493912 0.486774 0.000000
0.494759 0.486774 0.000000
0.492307 0.486774 0.000000
0.487662 0.486774 0.000000
0.481933 0.486774 0.000000
0.476226 0.486774 0.000000
0.471648 0.486774 0.000000
0.469307 0.486774 0.000000
0.470309 0.486774 0.000000
0.475762 0.486774 0.000000
0.486774 0.486774 0.000000
0.504450 0.486774 0.000000
0.529899 0.486774 0.000000
0.564227 0.486774 0.000000
0.608081 0.486774 0.000000
0.660427 0.486774 0.000000
0.719849 0.486774 0.000000
0.784933 0.486774 0.000000
0.854263 0.486774 0.000000
0.926424 0.486774 0.000000
1.000000 0.486774 0.000000
0.000000 0.504450 0.000000
0.066802 0.504450 0.000000
0.132425 0.504450 0.000000
0.195690 0.504450 0.000000
0.255419 0.504450 0.000000
0.310431 0.504450 0.000000
0.359548 0.504450 0.000000
0.401591 0.504450 0.000000
0.435388 0.504450 0.000000
0.460504 0.504450 0.000000
0.477892 0.504450 0.000000
0.488659 0.504450 0.000000
0.493912 0.504450 0.000000
0.494759 0.504450 0.000000
0.492307 0.504450 0.000000
0.487662 0.504450 0.000000
0.481933 0.504450 0.000000
0.476226 0.504450 0.000000
0.471648 0.504450 0.000000
0.469307 0.504450 0.000000
0.470309 0.504450 0.000000
0.475762 0.504450 0.000000
0.486774 0.504450 0.000000
0.504450 0.504450 0.000000
0.529899 0.504450 0.000000
0.564227 0.504450 0.000000
0.608081 0.504450 0.000000
0.660427 0.504450 0.000000
0.719849 0.504450 0.000000
0.784933 0.504450 0.000000
0.854263 0.504450 0.000000
0.926424 0.504450 0.000000
1.000000 0.504450 0.000000
0.000000 0.529899 0.000000
0.066802 0.529899 0.000000
0.132425 0.529899 0.000000
0.195690 0.529899 0.000000
0.255419 0.529899 0.000000
0.310431 0.529899 0.000000
0.359548 0.529899 0.000000
0.401591 0.529899 0.000000
0.435388 0.529899 0.000000
0.460504 0.529899 0.000000
0.477892 0.529899 0.000000
0.488659 0.529899 0.000000
0.493912 0.529899 0.000000
0.494759 0.529899 0.000000
0.492307 0.529899 0.000000
0.487662 0.529899 0.000000
0.481933 0.529899 0.000000
0.476226 0.529899 0.000000
0.471648 0.529899 0.000000
0.469307 0.529899 0.000000
0.470309 0.529899 0.000000
0.475762 0.529899 0.000000
0.486774 0.529899 0.000000
0.504450 0.529899 0.000000
0.529899 0.529899 0.000000
0.564227 0.529899 0.000000
0.608081 0.529899 0.000000
0.660427 0.529899 0.000000
0.719849 0.529899 0.000000
0.784933 0.529899 0.000000
0.854263 0.529899 0.000000
0.926424 0.529899 0.000000
1.000000 0.529899 0.000000
0.000000 0.564227 0.000000
0.066802 0.564227 0.000000
0.132425 0.564227 0.000000
0.195690 0.564227 0.000000
0.255419 0.564227 0.000000
0.310431 0.564227 0.000000
0.359548 0.564227 0.000000
0.401591 0.564227 0.000000
0.435388 0.564227 0.000000
0.460504 0.564227 0.000000
0.477892 0.564227 0.000000
0.488659 0.564227 0.000000
0.493912 0.564227 0.000000
0.494759 0.564227 0.000000
0.492307 0.564227 0.000000
0.487662 0.564227 0.000000
0.481933 0.564227 0.000000
0.476226 0.564227 0.000000
0.471648 0.564227 0.000000
0.469307 0.564227 0.000000
0.470309 0.564227 0.000000
0.475762 0.564227 0.000000
0.486774 0.564227 0.000000
0.504450 0.564227 0.000000
0.529899 0.564227 0.000000
0.564227 0.564227 0.000000
0.608081 0.564227 0.000000
0.660427 0.564227 0.000000
0.719849 0.564227 0.000000
0.784933 0.564227 0.000000
0.854263 0.564227 0.000000
0.926424 0.564227 0.000000
1.000000 0.564227 0.000000
0.000000 0.608081 0.000000
0.066802 0.608081 0.000000
0.132425 0.608081 0.000000
0.195690 0.608081 0.000000
0.255419 0.608081 0.000000
0.310431 0.608081 0.000000
0.359548 0.608081 0.000000
0.401591 0.608081 0.000000
0.435388 0.608081 0.000000
0.460504 0.608081 0.000000
0.477892 0.608081 0.000000
0.488659 0.608081 0.000000
0.493912 0.608081 0.000000
0.494759 0.608081 0.000000
0.492307 0.608081 0.000000
0.487662 0.608081 0.000000
0.481933 0.608081 0.000000
0.476226 0.608081 0.000000
0.471648 0.608081 0.000000
0.469307 0.608081 0.000000
0.470309 0.608081 0.000000
0.475762 0.608081 0.000000
0.486774 0.608081 0.000000
0.504450 0.608081 0.000000
0.529899 0.608081 0.000000
