Exported LUT.cube
#Created by: Affinity
TITLE "Exported LUT"
#LUT size
LUT_3D_SIZE 5
#data domain
DOMAIN_MIN 0.0 0.0 0.0
DOMAIN_MAX 1.0 1.0 1.0
#LUT data points
0.000000 0.000000 0.000000
0.435388 0.000000 0.000000
0.481933 0.000000 0.000000
0.529899 0.000000 0.000000
1.000000 0.000000 0.000000
0.000000 0.435388 0.000000
0.435388 0.435388 0.000000
0.481933 0.435388 0.000000
0.529899 0.435388 0.000000
1.000000 0.435388 0.000000
0.000000 0.481933 0.000000
0.435388 0.481933 0.000000
0.481933 0.481933 0.000000
0.529899 0.481933 0.000000
1.000000 0.481933 0.000000
0.000000 0.529899 0.000000
0.435388 0.529899 0.000000
0.481933 0.529899 0.000000
0.529899 0.529899 0.000000
1.000000 0.529899 0.000000
0.000000 1.000000 0.000000
0.435388 1.000000 0.000000
0.481933 1.000000 0.000000
0.529899 1.000000 0.000000
1.000000 1.000000 0.000000
0.000000 0.000000 0.435388
0.435388 0.000000 0.435388
0.481933 0.000000 0.435388
0.529899 0.000000 0.435388
1.000000 0.000000 0.435388
0.000000 0.435388 0.435388
0.435388 0.435388 0.435388
0.481933 0.435388 0.435388
0.529899 0.435388 0.435388
1.000000 0.435388 0.435388
0.000000 0.481933 0.435388
0.435388 0.481933 0.435388
0.481933 0.481933 0.435388
0.529899 0.481933 0.435388
1.000000 0.481933 0.435388
0.000000 0.529899 0.435388
0.435388 0.529899 0.435388
0.481933 0.529899 0.435388
0.529899 0.529899 0.435388
1.000000 0.529899 0.435388
0.000000 1.000000 0.435388
0.435388 1.000000 0.435388
0.481933 1.000000 0.435388
0.529899 1.000000 0.435388
1.000000 1.000000 0.435388
0.000000 0.000000 0.481933
0.435388 0.000000 0.481933
0.481933 0.000000 0.481933
0.529899 0.000000 0.481933
1.000000 0.000000 0.481933
0.000000 0.435388 0.481933
0.435388 0.435388 0.481933
0.481933 0.435388 0.481933
0.529899 0.435388 0.481933
1.000000 0.435388 0.481933
0.000000 0.481933 0.481933
0.435388 0.481933 0.481933
0.481933 0.481933 0.481933
0.529899 0.481933 0.481933
1.000000 0.481933 0.481933
0.000000 0.529899 0.481933
0.435388 0.529899 0.481933
0.481933 0.529899 0.481933
0.529899 0.529899 0.481933
1.000000 0.529899 0.481933
0.000000 1.000000 0.481933
0.435388 1.000000 0.481933
0.481933 1.000000 0.481933
0.529899 1.000000 0.481933
1.000000 1.000000 0.481933
0.000000 0.000000 0.529899
0.435388 0.000000 0.529899
0.481933 0.000000 0.529899
0.529899 0.000000 0.529899
1.000000 0.000000 0.529899
0.000000 0.435388 0.529899
0.435388 0.435388 0.529899
0.481933 0.435388 0.529899
0.529899 0.435388 0.529899
1.000000 0.435388 0.529899
0.000000 0.481933 0.529899
0.435388 0.481933 0.529899
0.481933 0.481933 0.529899
0.529899 0.481933 0.529899
1.000000 0.481933 0.529899
0.000000 0.529899 0.529899
0.435388 0.529899 0.529899
0.481933 0.529899 0.529899
0.529899 0.529899 0.529899
1.000000 0.529899 0.529899
0.000000 1.000000 0.529899
0.435388 1.000000 0.529899
0.481933 1.000000 0.529899
0.529899 1.000000 0.529899
1.000000 1.000000 0.529899
0.000000 0.000000 1.000000
0.435388 0.000000 1.000000
0.481933 0.000000 1.000000
0.529899 0.000000 1.000000
1.000000 0.000000 1.000000
0.000000 0.435388 1.000000
0.435388 0.435388 1.000000
0.481933 0.435388 1.000000
0.529899 0.435388 1.000000
1.000000 0.435388 1.000000
0.000000 0.481933 1.000000
0.435388 0.481933 1.000000
0.481933 0.481933 1.000000
0.529899 0.481933 1.000000
1.000000 0.481933 1.000000
0.000000 0.529899 1.000000
0.435388 0.529899 1.000000
0.481933 0.529899 1.000000
0.529899 0.529899 1.000000
1.000000 0.529899 1.000000
0.000000 1.000000 1.000000
0.435388 1.000000 1.000000
0.481933 1.000000 1.000000
0.529899 1.000000 1.000000
1.000000 1.000000 1.000000
