Gruvbox.cube
#Created by: term2lut
TITLE "Gruvbox Dark"
#LUT size
LUT_3D_SIZE 33
#data domain
DOMAIN_MIN 0.0 0.0 0.0
DOMAIN_MAX 1.0 1.0 1.0
#LUT data points
0.156863 0.156863 0.156863
0.156863 0.156863 0.156863
0.156863 0.156863 0.156863
0.156863 0.156863 0.156863
0.156863 0.156863 0.156863
0.156863 0.156863 0.156863
0.156863 0.156863 0.156863
0.156863 0.156863 0.156863
0.156863 0.156863 0.156863
0.156863 0.156863 0.156863
0.156863 0.156863 0.156863
0.156863 0.156863 0.156863
0.156863 0.156863 0.156863
0.156863 0.156863 0.156863
0.156863 0.156863 0.156863
0.800000 0.141176 0.113725
0.800000 0.141176 0.113725
0.800000 0.141176 0.113725
0.800000 0.141176 0.113725
0.800000 0.141176 0.113725
0.800000 0.141176 0.113725
0.800000 0.141176 0.113725
0.800000 0.141176 0.113725
0.800000 0.141176 0.113725
0.800000 0.141176 0.113725
0.800000 0.141176 0.113725
0.800000 0.141176 0.113725
0.800000 0.141176 0.113725
0.800000 0.141176 0.113725
0.800000 0.141176 0.113725
0.800000 0.141176 0.113725
0.800000 0.141176 0.113725
0.800000 0.141176 0.113725
0.156863 0.156863 0.156863
0.156863 0.156863 0.156863
0.156863 0.156863 0.156863
0.156863 0.156863 0.156863
0.156863 0.156863 0.156863
0.156863 0.156863 0.156863
0.156863 0.156863 0.156863
0.156863 0.156863 0.156863
0.156863 0.156863 0.156863
0.156863 0.156863 0.156863
0.156863 0.156863 0.156863
0.156863 0.156863 0.156863
0.156863 0.156863 0.156863
0.156863 0.156863 0.156863
0.156863 0.156863 0.156863
0.800000 0.141176 0.113725
0.800000 0.141176 0.113725
0.800000 0.141176 0.113725
0.800000 0.141176 0.113725
0.800000 0.141176 0.113725
0.800000 0.141176 0.113725
0.800000 0.141176 0.113725
0.800000 0.141176 0.113725
0.800000 0.141176 0.113725
0.800000 0.141176 0.113725
0.800000 0.141176 0.113725
0.800000 0.141176 0.113725
0.800000 0.141176 0.113725
0.800000 0.141176 0.113725
0.800000 0.141176 0.113725
0.800000 0.141176 0.113725
0.800000 0.141176 0.113725
0.800000 0.141176 0.113725
0.156863 0.156863 0.156863
0.156863 0.156863 0.156863
0.156863 0.156863 0.156863
0.156863 0.156863 0.156863
0.156863 0.156863 0.156863
0.156863 0.156863 0.156863
0.156863 0.156863 0.156863
0.156863 0.156863 0.156863
0.156863 0.156863 0.156863
0.156863 0.156863 0.156863
0.156863 0.156863 0.156863
0.156863 0.156863 0.156863
0.156863 0.156863 0.156863
0.156863 0.156863 0.156863
0.156863 0.156863 0.156863
0.800000 0.141176 0.113725
0.800000 0.141176 0.113725
0.800000 0.141176 0.113725
0.800000 0.141176 0.113725
0.800000 0.141176 0.113725
0.800000 0.141176 0.113725
0.800000 0.141176 0.113725
0.800000 0.141176 0.113725
0.800000 0.141176 0.113725
0.800000 0.141176 0.113725
0.800000 0.141176 0.113725
0.800000 0.141176 0.113725
0.800000 0.141176 0.113725
0.800000 0.141176 0.113725
0.800000 0.141176 0.113725
0.800000 0.141176 0.113725
0.800000 0.141176 0.113725
0.800000 0.141176 0.113725
0.156863 0.156863 0.156863
0.156863 0.156863 0.156863
0.156863 0.156863 0.156863
0.156863 0.156863 0.156863
0.156863 0.156863 0.156863
0.156863 0.156863 0.156863
0.156863 0.156863 0.156863
0.156863 0.156863 0.156863
0.156863 0.156863 0.156863
0.156863 0.156863 0.156863
0.156863 0.156863 0.156863
0.156863 0.156863 0.156863
0.156863 0.156863 0.156863
0.156863 0.156863 0.156863
0.156863 0.156863 0.156863
0.800000 0.141176 0.113725
0.800000 0.141176 0.113725
0.800000 0.141176 0.113725
0.800000 0.141176 0.113725
0.800000 0.141176 0.113725
0.800000 0.141176 0.113725
0.800000 0.141176 0.113725
0.800000 0.141176 0.113725
0.800000 0.141176 0.113725
0.800000 0.141176 0.113725
0.800000 0.141176 0.113725
0.800000 0.141176 0.113725
0.800000 0.141176 0.113725
0.800000 0.141176 0.113725
0.800000 0.141176 0.113725
0.800000 0.141176 0.113725
0.800000 0.141176 0.113725
0.800000 0.141176 0.113725
0.156863 0.156863 0.156863
0.156863 0.156863 0.156863
0.156863 0.156863 0.156863
0.156863 0.156863 0.156863
0.156863 0.156863 0.156863
0.156863 0.156863 0.156863
0.156863 0.156863 0.156863
0.156863 0.156863 0.156863
0.156863 0.156863 0.156863
0.156863 0.156863 0.156863
0.156863 0.156863 0.156863
0.156863 0.156863 0.156863
0.156863 0.156863 0.156863
0.156863 0.156863 0.156863
0.156863 0.156863 0.156863
0.800000 0.141176 0.113725
0.800000 0.141176 0.113725
0.800000 0.141176 0.113725
0.800000 0.141176 0.113725
0.800000 0.141176 0.113725
0.800000 0.141176 0.113725
0.800000 0.141176 0.113725
0.800000 0.141176 0.113725
0.800000 0.141176 0.113725
0.800000 0.141176 0.113725
0.800000 0.141176 0.113725
0.800000 0.141176 0.113725
0.800000 0.141176 0.113725
0.800000 0.141176 0.113725
0.800000 0.141176 0.113725
0.800000 0.141176 0.113725
0.800000 0.141176 0.113725
0.800000 0.141176 0.113725
0.156863 0.156863 0.156863
0.156863 0.156863 0.156863
0.156863 0.156863 0.156863
0.156863 0.156863 0.156863
0.156863 0.156863 0.156863
0.156863 0.156863 0.156863
0.156863 0.156863 0.156863
0.156863 0.156863 0.156863
0.156863 0.156863 0.156863
0.156863 0.156863 0.156863
0.156863 0.156863 0.156863
0.156863 0.156863 0.156863
0.156863 0.156863 0.156863
0.156863 0.156863 0.156863
0.156863 0.156863 0.156863
0.800000 0.141176 0.113725
0.800000 0.141176 0.113725
0.800000 0.141176 0.113725
0.800000 0.141176 0.113725
0.800000 0.141176 0.113725
0.800000 0.141176 0.113725
0.800000 0.141176 0.113725
0.800000 0.141176 0.113725
0.800000 0.141176 0.113725
0.800000 0.141176 0.113725
0.800000 0.141176 0.113725
0.800000 0.141176 0.113725
0.800000 0.141176 0.113725
0.800000 0.141176 0.113725
0.800000 0.141176 0.113725
0.800000 0.141176 0.113725
0.800000 0.141176 0.113725
0.800000 0.141176 0.113725
0.156863 0.156863 0.156863
0.156863 0.156863 0.156863
0.156863 0.156863 0.156863
0.156863 0.156863 0.156863
0.156863 0.156863 0.156863
0.156863 0.156863 0.156863
0.156863 0.156863 0.156863
0.156863 0.156863 0.156863
0.156863 0.156863 0.156863
0.156863 0.156863 0.156863
0.156863 0.156863 0.156863
0.156863 0.156863 0.156863
0.156863 0.156863 0.156863
0.156863 0.156863 0.156863
0.156863 0.156863 0.156863
0.800000 0.141176 0.113725
0.800000 0.141176 0.113725
0.800000 0.141176 0.113725
0.800000 0.141176 0.113725
0.800000 0.141176 0.113725
0.800000 0.141176 0.113725
0.800000 0.141176 0.113725
0.800000 0.141176 0.113725
0.800000 0.141176 0.113725
0.800000 0.141176 0.113725
0.800000 0.141176 0.113725
0.800000 0.141176 0.113725
0.800000 0.141176 0.113725
0.800000 0.141176 0.113725
0.800000 0.141176 0.113725
0.800000 0.141176 0.113725
0.800000 0.141176 0.113725
0.984314 0.286275 0.203922
0.156863 0.156863 0.156863
0.156863 0.156863 0.156863
0.156863 0.156863 0.156863
0.156863 0.156863 0.156863
0.156863 0.156863 0.156863
0.156863 0.156863 0.156863
0.156863 0.156863 0.156863
0.156863 0.156863 0.156863
0.156863 0.156863 0.156863
0.156863 0.156863 0.156863
0.156863 0.156863 0.156863
0.156863 0.156863 0.156863
0.156863 0.156863 0.156863
0.156863 0.156863 0.156863
0.156863 0.156863 0.156863
0.156863 0.156863 0.156863
0.800000 0.141176 0.113725
0.800000 0.141176 0.113725
0.800000 0.141176 0.113725
0.800000 0.141176 0.113725
0.800000 0.141176 0.113725
0.800000 0.141176 0.113725
0.800000 0.141176 0.113725
0.800000 0.141176 0.113725
0.800000 0.141176 0.113725
0.800000 0.141176 0.113725
0.800000 0.141176 0.113725
0.800000 0.141176 0.113725
0.800000 0.141176 0.113725
0.800000 0.141176 0.113725
0.800000 0.141176 0.113725
0.984314 0.286275 0.203922
0.984314 0.286275 0.203922
0.156863 0.156863 0.156863
0.156863 0.156863 0.156863
0.156863 0.156863 0.156863
0.156863 0.156863 0.156863
0.156863 0.156863 0.156863
0.156863 0.156863 0.156863
0.156863 0.156863 0.156863
0.156863 0.156863 0.156863
0.156863 0.156863 0.156863
0.156863 0.156863 0.156863
0.156863 0.156863 0.156863
0.156863 0.156863 0.156863
0.156863 0.156863 0.156863
0.156863 0.156863 0.156863
0.156863 0.156863 0.156863
0.400000 0.360784 0.329412
0.800000 0.141176 0.113725
0.800000 0.141176 0.113725
0.800000 0.141176 0.113725
0.800000 0.141176 0.113725
0.800000 0.141176 0.113725
0.800000 0.141176 0.113725
0.800000 0.141176 0.113725
0.800000 0.141176 0.113725
0.800000 0.141176 0.113725
0.800000 0.141176 0.113725
0.800000 0.141176 0.113725
0.800000 0.141176 0.113725
0.800000 0.141176 0.113725
0.800000 0.141176 0.113725
0.800000 0.141176 0.113725
0.984314 0.286275 0.203922
0.984314 0.286275 0.203922
0.156863 0.156863 0.156863
0.156863 0.156863 0.156863
0.156863 0.156863 0.156863
0.156863 0.156863 0.156863
0.156863 0.156863 0.156863
0.156863 0.156863 0.156863
0.156863 0.156863 0.156863
0.156863 0.156863 0.156863
0.156863 0.156863 0.156863
0.156863 0.156863 0.156863
0.156863 0.156863 0.156863
0.156863 0.156863 0.156863
0.156863 0.156863 0.156863
0.156863 0.156863 0.156863
0.400000 0.360784 0.329412
0.400000 0.360784 0.329412
0.596078 0.592157 0.101961
0.800000 0.141176 0.113725
0.800000 0.141176 0.113725
0.800000 0.141176 0.113725
0.800000 0.141176 0.113725
0.800000 0.141176 0.113725
0.800000 0.141176 0.113725
0.800000 0.141176 0.113725
0.800000 0.141176 0.113725
0.800000 0.141176 0.113725
0.800000 0.141176 0.113725
0.800000 0.141176 0.113725
0.800000 0.141176 0.113725
0.800000 0.141176 0.113725
0.984314 0.286275 0.203922
0.984314 0.286275 0.203922
0.984314 0.286275 0.203922
0.156863 0.156863 0.156863
0.156863 0.156863 0.156863
0.156863 0.156863 0.156863
0.156863 0.156863 0.156863
0.156863 0.156863 0.156863
0.156863 0.156863 0.156863
0.156863 0.156863 0.156863
0.156863 0.156863 0.156863
0.156863 0.156863 0.156863
0.156863 0.156863 0.156863
0.156863 0.156863 0.156863
0.156863 0.156863 0.156863
0.156863 0.156863 0.156863
0.400000 0.360784 0.329412
0.400000 0.360784 0.329412
0.596078 0.592157 0.101961
0.596078 0.592157 0.101961
0.596078 0.592157 0.101961
0.596078 0.592157 0.101961
0.800000 0.141176 0.113725
0.800000 0.141176 0.113725
0.800000 0.141176 0.113725
0.800000 0.141176 0.113725
0.800000 0.141176 0.113725
0.800000 0.141176 0.113725
0.800000 0.141176 0.113725
0.800000 0.141176 0.113725
0.800000 0.141176 0.113725
0.800000 0.141176 0.113725
0.984314 0.286275 0.203922
0.984314 0.286275 0.203922
0.984314 0.286275 0.203922
0.984314 0.286275 0.203922
0.156863 0.156863 0.156863
0.156863 0.156863 0.156863
0.156863 0.156863 0.156863
0.156863 0.156863 0.156863
0.156863 0.156863 0.156863
0.156863 0.156863 0.156863
0.156863 0.156863 0.156863
0.156863 0.156863 0.156863
0.156863 0.156863 0.156863
0.156863 0.156863 0.156863
0.156863 0.156863 0.156863
0.156863 0.156863 0.156863
0.156863 0.156863 0.156863
0.596078 0.592157 0.101961
0.596078 0.592157 0.101961
0.596078 0.592157 0.101961
0.596078 0.592157 0.101961
0.596078 0.592157 0.101961
0.596078 0.592157 0.101961
0.596078 0.592157 0.101961
0.596078 0.592157 0.101961
0.596078 0.592157 0.101961
0.800000 0.141176 0.113725
0.800000 0.141176 0.113725
0.800000 0.141176 0.113725
0.800000 0.141176 0.113725
0.800000 0.141176 0.113725
0.800000 0.141176 0.113725
0.984314 0.286275 0.203922
0.984314 0.286275 0.203922
0.984314 0.286275 0.203922
0.984314 0.286275 0.203922
0.984314 0.286275 0.203922
0.156863 0.156863 0.156863
0.156863 0.156863 0.156863
0.156863 0.156863 0.156863
0.156863 0.156863 0.156863
0.156863 0.156863 0.156863
0.156863 0.156863 0.156863
0.156863 0.156863 0.156863
0.156863 0.156863 0.156863
0.156863 0.156863 0.156863
0.156863 0.156863 0.156863
0.156863 0.156863 0.156863
0.156863 0.156863 0.156863
0.596078 0.592157 0.101961
0.596078 0.592157 0.101961
0.596078 0.592157 0.101961
0.596078 0.592157 0.101961
0.596078 0.592157 0.101961
0.596078 0.592157 0.101961
0.596078 0.592157 0.101961
0.596078 0.592157 0.101961
0.596078 0.592157 0.101961
0.596078 0.592157 0.101961
0.596078 0.592157 0.101961
0.596078 0.592157 0.101961
0.800000 0.141176 0.113725
0.800000 0.141176 0.113725
0.843137 0.600000 0.129412
0.843137 0.600000 0.129412
0.984314 0.286275 0.203922
0.984314 0.286275 0.203922
0.984314 0.286275 0.203922
0.984314 0.286275 0.203922
0.984314 0.286275 0.203922
0.156863 0.156863 0.156863
0.156863 0.156863 0.156863
0.156863 0.156863 0.156863
0.156863 0.156863 0.156863
0.156863 0.156863 0.156863
0.156863 0.156863 0.156863
0.156863 0.156863 0.156863
0.156863 0.156863 0.156863
0.156863 0.156863 0.156863
0.156863 0.156863 0.156863
0.156863 0.156863 0.156863
0.596078 0.592157 0.101961
0.596078 0.592157 0.101961
0.596078 0.592157 0.101961
0.596078 0.592157 0.101961
0.596078 0.592157 0.101961
0.596078 0.592157 0.101961
0.596078 0.592157 0.101961
0.596078 0.592157 0.101961
0.596078 0.592157 0.101961
0.596078 0.592157 0.101961
0.596078 0.592157 0.101961
0.596078 0.592157 0.101961
0.596078 0.592157 0.101961
0.843137 0.600000 0.129412
0.843137 0.600000 0.129412
0.843137 0.600000 0.129412
0.843137 0.600000 0.129412
0.843137 0.600000 0.129412
0.843137 0.600000 0.129412
0.984314 0.286275 0.203922
0.984314 0.286275 0.203922
0.984314 0.286275 0.203922
0.156863 0.156863 0.156863
0.156863 0.156863 0.156863
0.156863 0.156863 0.156863
0.156863 0.156863 0.156863
0.156863 0.156863 0.156863
0.156863 0.156863 0.156863
0.156863 0.156863 0.156863
0.156863 0.156863 0.156863
0.156863 0.156863 0.156863
0.156863 0.156863 0.156863
0.596078 0.592157 0.101961
0.596078 0.592157 0.101961
0.596078 0.592157 0.101961
0.596078 0.592157 0.101961
0.596078 0.592157 0.101961
0.596078 0.592157 0.101961
0.596078 0.592157 0.101961
0.596078 0.592157 0.101961
0.596078 0.592157 0.101961
0.596078 0.592157 0.101961
0.596078 0.592157 0.101961
0.596078 0.592157 0.101961
0.596078 0.592157 0.101961
0.596078 0.592157 0.101961
0.843137 0.600000 0.129412
0.843137 0.600000 0.129412
0.843137 0.600000 0.129412
0.843137 0.600000 0.129412
0.843137 0.600000 0.129412
0.843137 0.600000 0.129412
0.843137 0.600000 0.129412
0.843137 0.600000 0.129412
0.984314 0.286275 0.203922
0.156863 0.156863 0.156863
0.156863 0.156863 0.156863
0.156863 0.156863 0.156863
0.156863 0.156863 0.156863
0.156863 0.156863 0.156863
0.156863 0.156863 0.156863
0.156863 0.156863 0.156863
0.156863 0.156863 0.156863
0.156863 0.156863 0.156863
0.596078 0.592157 0.101961
0.596078 0.592157 0.101961
0.596078 0.592157 0.101961
0.596078 0.592157 0.101961
0.596078 0.592157 0.101961
0.596078 0.592157 0.101961
0.596078 0.592157 0.101961
0.596078 0.592157 0.101961
0.596078 0.592157 0.101961
0.596078 0.592157 0.101961
0.596078 0.592157 0.101961
0.596078 0.592157 0.101961
0.596078 0.592157 0.101961
0.596078 0.592157 0.101961
0.596078 0.592157 0.101961
0.843137 0.600000 0.129412
0.843137 0.600000 0.129412
0.843137 0.600000 0.129412
0.843137 0.600000 0.129412
0.843137 0.600000 0.129412
0.843137 0.600000 0.129412
0.843137 0.600000 0.129412
0.843137 0.600000 0.129412
0.843137 0.600000 0.129412
0.156863 0.156863 0.156863
0.156863 0.156863 0.156863
0.156863 0.156863 0.156863
0.156863 0.156863 0.156863
0.156863 0.156863 0.156863
0.156863 0.156863 0.156863
0.156863 0.156863 0.156863
0.156863 0.156863 0.156863
0.596078 0.592157 0.101961
0.596078 0.592157 0.101961
0.596078 0.592157 0.101961
0.596078 0.592157 0.101961
0.596078 0.592157 0.101961
0.596078 0.592157 0.101961
0.596078 0.592157 0.101961
0.596078 0.592157 0.101961
0.596078 0.592157 0.101961
0.596078 0.592157 0.101961
0.596078 0.592157 0.101961
0.596078 0.592157 0.101961
0.596078 0.592157 0.101961
0.596078 0.592157 0.101961
0.596078 0.592157 0.101961
0.596078 0.592157 0.101961
0.843137 0.600000 0.129412
0.843137 0.600000 0.129412
0.843137 0.600000 0.129412
0.843137 0.600000 0.129412
0.843137 0.600000 0.129412
0.843137 0.600000 0.129412
0.843137 0.600000 0.129412
0.843137 0.600000 0.129412
0.843137 0.600000 0.129412
0.156863 0.156863 0.156863
0.156863 0.156863 0.156863
0.156863 0.156863 0.156863
0.156863 0.156863 0.156863
0.156863 0.156863 0.156863
0.156863 0.156863 0.156863
0.156863 0.156863 0.156863
0.596078 0.592157 0.101961
0.596078 0.592157 0.101961
0.596078 0.592157 0.101961
0.596078 0.592157 0.101961
0.596078 0.592157 0.101961
0.596078 0.592157 0.101961
0.596078 0.592157 0.101961
0.596078 0.592157 0.101961
0.596078 0.592157 0.101961
0.596078 0.592157 0.101961
0.596078 0.592157 0.101961
0.596078 0.592157 0.101961
0.596078 0.592157 0.101961
0.596078 0.592157 0.101961
0.596078 0.592157 0.101961
0.596078 0.592157 0.101961
0.596078 0.592157 0.101961
0.843137 0.600000 0.129412
0.843137 0.600000 0.129412
0.843137 0.600000 0.129412
0.843137 0.600000 0.129412
0.843137 0.600000 0.129412
0.843137 0.600000 0.129412
0.843137 0.600000 0.129412
0.843137 0.600000 0.129412
0.843137 0.600000 0.129412
0.156863 0.156863 0.156863
0.156863 0.156863 0.156863
0.156863 0.156863 0.156863
0.156863 0.156863 0.156863
0.156863 0.156863 0.156863
0.156863 0.156863 0.156863
0.596078 0.592157 0.101961
0.596078 0.592157 0.101961
0.596078 0.592157 0.101961
0.596078 0.592157 0.101961
0.596078 0.592157 0.101961
0.596078 0.592157 0.101961
0.596078 0.592157 0.101961
0.596078 0.592157 0.101961
0.596078 0.592157 0.101961
0.596078 0.592157 0.101961
0.596078 0.592157 0.101961
0.596078 0.592157 0.101961
0.596078 0.592157 0.101961
0.596078 0.592157 0.101961
0.596078 0.592157 0.101961
0.596078 0.592157 0.101961
0.596078 0.592157 0.101961
0.596078 0.592157 0.101961
0.843137 0.600000 0.129412
0.843137 0.600000 0.129412
0.843137 0.600000 0.129412
0.843137 0.600000 0.129412
0.843137 0.600000 0.129412
0.843137 0.600000 0.129412
0.843137 0.600000 0.129412
0.843137 0.600000 0.129412
0.843137 0.600000 0.129412
0.156863 0.156863 0.156863
0.156863 0.156863 0.156863
0.156863 0.156863 0.156863
0.156863 0.156863 0.156863
0.156863 0.156863 0.156863
0.596078 0.592157 0.101961
0.596078 0.592157 0.101961
0.596078 0.592157 0.101961
0.596078 0.592157 0.101961
0.596078 0.592157 0.101961
0.596078 0.592157 0.101961
0.596078 0.592157 0.101961
0.596078 0.592157 0.101961
0.596078 0.592157 0.101961
0.596078 0.592157 0.101961
0.596078 0.592157 0.101961
0.596078 0.592157 0.101961
0.596078 0.592157 0.101961
0.596078 0.592157 0.101961
0.596078 0.592157 0.101961
0.596078 0.592157 0.101961
0.596078 0.592157 0.101961
0.596078 0.592157 0.101961
0.596078 0.592157 0.101961
0.843137 0.600000 0.129412
0.843137 0.600000 0.129412
0.843137 0.600000 0.129412
0.843137 0.600000 0.129412
0.843137 0.600000 0.129412
0.843137 0.600000 0.129412
0.843137 0.600000 0.129412
0.843137 0.600000 0.129412
0.843137 0.600000 0.129412
0.156863 0.156863 0.156863
0.156863 0.156863 0.156863
0.156863 0.156863 0.156863
0.156863 0.156863 0.156863
0.596078 0.592157 0.101961
0.596078 0.592157 0.101961
0.596078 0.592157 0.101961
0.596078 0.592157 0.101961
0.596078 0.592157 0.101961
0.596078 0.592157 0.101961
0.596078 0.592157 0.101961
0.596078 0.592157 0.101961
0.596078 0.592157 0.101961
0.596078 0.592157 0.101961
0.596078 0.592157 0.101961
0.596078 0.592157 0.101961
0.596078 0.592157 0.101961
0.596078 0.592157 0.101961
0.596078 0.592157 0.101961
0.596078 0.592157 0.101961
0.596078 0.592157 0.101961
0.596078 0.592157 0.101961
0.596078 0.592157 0.101961
0.596078 0.592157 0.101961
0.843137 0.600000 0.129412
0.843137 0.600000 0.129412
0.843137 0.600000 0.129412
0.843137 0.600000 0.129412
0.843137 0.600000 0.129412
0.843137 0.600000 0.129412
0.843137 0.600000 0.129412
0.843137 0.600000 0.129412
0.843137 0.600000 0.129412
0.156863 0.156863 0.156863
0.156863 0.156863 0.156863
0.156863 0.156863 0.156863
0.596078 0.592157 0.101961
0.596078 0.592157 0.101961
0.596078 0.592157 0.101961
0.596078 0.592157 0.101961
0.596078 0.592157 0.101961
0.596078 0.592157 0.101961
0.596078 0.592157 0.101961
0.596078 0.592157 0.101961
0.596078 0.592157 0.101961
0.596078 0.592157 0.101961
0.596078 0.592157 0.101961
0.596078 0.592157 0.101961
0.596078 0.592157 0.101961
0.596078 0.592157 0.101961
0.596078 0.592157 0.101961
0.596078 0.592157 0.101961
0.596078 0.592157 0.101961
0.596078 0.592157 0.101961
0.596078 0.592157 0.101961
0.596078 0.592157 0.101961
0.721569 0.733333 0.149020
0.843137 0.600000 0.129412
0.843137 0.600000 0.129412
0.843137 0.600000 0.129412
0.843137 0.600000 0.129412
0.843137 0.600000 0.129412
0.843137 0.600000 0.129412
0.843137 0.600000 0.129412
0.843137 0.600000 0.129412
0.980392 0.741176 0.184314
0.156863 0.156863 0.156863
0.407843 0.615686 0.415686
0.407843 0.615686 0.415686
0.596078 0.592157 0.101961
0.596078 0.592157 0.101961
0.596078 0.592157 0.101961
0.596078 0.592157 0.101961
0.596078 0.592157 0.101961
0.596078 0.592157 0.101961
0.596078 0.592157 0.101961
0.596078 0.592157 0.101961
0.596078 0.592157 0.101961
0.596078 0.592157 0.101961
0.596078 0.592157 0.101961
0.596078 0.592157 0.101961
0.596078 0.592157 0.101961
0.596078 0.592157 0.101961
0.596078 0.592157 0.101961
0.596078 0.592157 0.101961
0.596078 0.592157 0.101961
0.596078 0.592157 0.101961
0.596078 0.592157 0.101961
0.721569 0.733333 0.149020
0.721569 0.733333 0.149020
0.721569 0.733333 0.149020
0.721569 0.733333 0.149020
0.843137 0.600000 0.129412
0.843137 0.600000 0.129412
0.843137 0.600000 0.129412
0.843137 0.600000 0.129412
0.843137 0.600000 0.129412
0.980392 0.741176 0.184314
0.980392 0.741176 0.184314
0.407843 0.615686 0.415686
0.407843 0.615686 0.415686
0.407843 0.615686 0.415686
0.596078 0.592157 0.101961
0.596078 0.592157 0.101961
0.596078 0.592157 0.101961
0.596078 0.592157 0.101961
0.596078 0.592157 0.101961
0.596078 0.592157 0.101961
0.596078 0.592157 0.101961
0.596078 0.592157 0.101961
0.596078 0.592157 0.101961
0.596078 0.592157 0.101961
0.596078 0.592157 0.101961
0.596078 0.592157 0.101961
0.596078 0.592157 0.101961
0.596078 0.592157 0.101961
0.596078 0.592157 0.101961
0.596078 0.592157 0.101961
0.596078 0.592157 0.101961
0.596078 0.592157 0.101961
0.721569 0.733333 0.149020
0.721569 0.733333 0.149020
0.721569 0.733333 0.149020
0.721569 0.733333 0.149020
0.721569 0.733333 0.149020
0.721569 0.733333 0.149020
0.843137 0.600000 0.129412
0.843137 0.600000 0.129412
0.843137 0.600000 0.129412
0.980392 0.741176 0.184314
0.980392 0.741176 0.184314
0.980392 0.741176 0.184314
0.407843 0.615686 0.415686
0.407843 0.615686 0.415686
0.407843 0.615686 0.415686
0.596078 0.592157 0.101961
0.596078 0.592157 0.101961
0.596078 0.592157 0.101961
0.596078 0.592157 0.101961
0.596078 0.592157 0.101961
0.596078 0.592157 0.101961
0.596078 0.592157 0.101961
0.596078 0.592157 0.101961
0.596078 0.592157 0.101961
0.596078 0.592157 0.101961
0.596078 0.592157 0.101961
0.596078 0.592157 0.101961
0.596078 0.592157 0.101961
0.596078 0.592157 0.101961
0.596078 0.592157 0.101961
0.596078 0.592157 0.101961
0.596078 0.592157 0.101961
0.721569 0.733333 0.149020
0.721569 0.733333 0.149020
0.721569 0.733333 0.149020
0.721569 0.733333 0.149020
0.721569 0.733333 0.149020
0.721569 0.733333 0.149020
0.721569 0.733333 0.149020
0.721569 0.733333 0.149020
0.843137 0.600000 0.129412
0.980392 0.741176 0.184314
0.980392 0.741176 0.184314
0.980392 0.741176 0.184314
0.980392 0.741176 0.184314
0.407843 0.615686 0.415686
0.407843 0.615686 0.415686
0.407843 0.615686 0.415686
0.596078 0.592157 0.101961
0.596078 0.592157 0.101961
0.596078 0.592157 0.101961
0.596078 0.592157 0.101961
0.596078 0.592157 0.101961
0.596078 0.592157 0.101961
0.596078 0.592157 0.101961
0.596078 0.592157 0.101961
0.596078 0.592157 0.101961
0.596078 0.592157 0.101961
0.596078 0.592157 0.101961
0.596078 0.592157 0.101961
0.596078 0.592157 0.101961
0.596078 0.592157 0.101961
0.596078 0.592157 0.101961
0.596078 0.592157 0.101961
0.721569 0.733333 0.149020
0.721569 0.733333 0.149020
0.721569 0.733333 0.149020
0.721569 0.733333 0.149020
0.721569 0.733333 0.149020
0.721569 0.733333 0.149020
0.721569 0.733333 0.149020
0.721569 0.733333 0.149020
0.721569 0.733333 0.149020
0.980392 0.741176 0.184314
0.980392 0.741176 0.184314
0.980392 0.741176 0.184314
0.980392 0.741176 0.184314
0.980392 0.741176 0.184314
0.407843 0.615686 0.415686
0.407843 0.615686 0.415686
0.407843 0.615686 0.415686
0.407843 0.615686 0.415686
0.596078 0.592157 0.101961
0.596078 0.592157 0.101961
0.596078 0.592157 0.101961
0.596078 0.592157 0.101961
0.596078 0.592157 0.101961
0.596078 0.592157 0.101961
0.596078 0.592157 0.101961
0.596078 0.592157 0.101961
0.596078 0.592157 0.101961
0.596078 0.592157 0.101961
0.596078 0.592157 0.101961
0.596078 0.592157 0.101961
0.596078 0.592157 0.101961
0.596078 0.592157 0.101961
0.721569 0.733333 0.149020
0.721569 0.733333 0.149020
0.721569 0.733333 0.149020
0.721569 0.733333 0.149020
0.721569 0.733333 0.149020
0.721569 0.733333 0.149020
0.721569 0.733333 0.149020
