Gruvbox.cube
#Created by: term2lut
TITLE "Gruvbox Dark"
#LUT size
LUT_3D_SIZE 5
#data domain
DOMAIN_MIN 0.0 0.0 0.0
DOMAIN_MAX 1.0 1.0 1.0
#LUT data points
0.156863 0.156863 0.156863
0.156863 0.156863 0.156863
0.800000 0.141176 0.113725
0.800000 0.141176 0.113725
0.800000 0.141176 0.113725
0.156863 0.156863 0.156863
0.156863 0.156863 0.156863
0.800000 0.141176 0.113725
0.800000 0.141176 0.113725
0.984314 0.286275 0.203922
0.156863 0.156863 0.156863
0.596078 0.592157 0.101961
0.596078 0.592157 0.101961
0.843137 0.600000 0.129412
0.843137 0.600000 0.129412
0.407843 0.615686 0.415686
0.596078 0.592157 0.101961
0.596078 0.592157 0.101961
0.721569 0.733333 0.149020
0.980392 0.741176 0.184314
0.407843 0.615686 0.415686
0.596078 0.592157 0.101961
0.721569 0.733333 0.149020
0.721569 0.733333 0.149020
0.980392 0.741176 0.184314
0.156863 0.156863 0.156863
0.156863 0.156863 0.156863
0.800000 0.141176 0.113725
0.800000 0.141176 0.113725
0.800000 0.141176 0.113725
0.156863 0.156863 0.156863
0.156863 0.156863 0.156863
0.400000 0.360784 0.329412
0.800000 0.141176 0.113725
0.984314 0.286275 0.203922
0.156863 0.156863 0.156863
0.400000 0.360784 0.329412
0.400000 0.360784 0.329412
0.843137 0.600000 0.129412
0.984314 0.286275 0.203922
0.270588 0.521569 0.533333
0.407843 0.615686 0.415686
0.407843 0.615686 0.415686
0.721569 0.733333 0.149020
0.980392 0.741176 0.184314
0.407843 0.615686 0.415686
0.407843 0.615686 0.415686
0.556863 0.752941 0.486275
0.721569 0.733333 0.149020
0.980392 0.741176 0.184314
0.156863 0.156863 0.156863
0.156863 0.156863 0.156863
0.400000 0.360784 0.329412
0.694118 0.384314 0.525490
0.984314 0.286275 0.203922
0.270588 0.521569 0.533333
0.400000 0.360784 0.329412
0.400000 0.360784 0.329412
0.694118 0.384314 0.525490
0.984314 0.286275 0.203922
0.270588 0.521569 0.533333
0.270588 0.521569 0.533333
0.572549 0.513725 0.454902
0.694118 0.384314 0.525490
0.827451 0.525490 0.607843
0.270588 0.521569 0.533333
0.407843 0.615686 0.415686
0.556863 0.752941 0.486275
0.658824 0.600000 0.517647
0.921569 0.858824 0.698039
0.270588 0.521569 0.533333
0.556863 0.752941 0.486275
0.556863 0.752941 0.486275
0.921569 0.858824 0.698039
0.921569 0.858824 0.698039
0.270588 0.521569 0.533333
0.270588 0.521569 0.533333
0.694118 0.384314 0.525490
0.694118 0.384314 0.525490
0.694118 0.384314 0.525490
0.270588 0.521569 0.533333
0.270588 0.521569 0.533333
0.694118 0.384314 0.525490
0.694118 0.384314 0.525490
0.827451 0.525490 0.607843
0.270588 0.521569 0.533333
0.270588 0.521569 0.533333
0.513725 0.647059 0.596078
0.827451 0.525490 0.607843
0.827451 0.525490 0.607843
0.270588 0.521569 0.533333
0.270588 0.521569 0.533333
0.513725 0.647059 0.596078
0.921569 0.858824 0.698039
0.921569 0.858824 0.698039
0.270588 0.521569 0.533333
0.513725 0.647059 0.596078
0.556863 0.752941 0.486275
0.921569 0.858824 0.698039
0.921569 0.858824 0.698039
0.270588 0.521569 0.533333
0.270588 0.521569 0.533333
0.694118 0.384314 0.525490
0.694118 0.384314 0.525490
0.827451 0.525490 0.607843
0.270588 0.521569 0.533333
0.270588 0.521569 0.533333
0.694118 0.384314 0.525490
0.827451 0.525490 0.607843
0.827451 0.525490 0.607843
0.270588 0.521569 0.533333
0.270588 0.521569 0.533333
0.513725 0.647059 0.596078
0.827451 0.525490 0.607843
0.827451 0.525490 0.607843
0.270588 0.521569 0.533333
0.513725 0.647059 0.596078
0.513725 0.647059 0.596078
0.921569 0.858824 0.698039
0.921569 0.858824 0.698039
0.270588 0.521569 0.533333
0.513725 0.647059 0.596078
0.921569 0.858824 0.698039
0.921569 0.858824 0.698039
0.921569 0.858824 0.698039
